X: 675
T: Shaliang diao
L: 1/8
M: 2/4
K: A
B> cB2 [I:setbarnb 1]| 
A B c e | 
B2F2 | 
c e f a | 
e c e B/ A/ | 
F4 | 
B> c A B | 
cc2c | 
CC2E | 
F F B B | 
A F A C | 
B,4 |]

@@@ Tune index: 9549
